src/assets/images/icons/codepen.svg

<svg xmlns="http://www.w3.org/2000/svg" fill="none" viewBox="0 0 24 24"><path stroke="#181D27" stroke-linecap="round" stroke-linejoin="round" stroke-width="2" d="m12 2 10 6.5M12 2 2 8.5M12 2v6.5m10 0v7m0-7-10 7m10 0L12 22m10-6.5-10-7M12 22 2 15.5M12 22v-6.5m-10 0v-7m0 7 10-7m-10 0 10 7"/></svg>

<svg width="24" height="24" viewBox="0 0 24 24" fill="none" xmlns="http://www.w3.org/2000/svg">
<path d="M12 2L22 8.5M12 2L2 8.5M12 2V8.5M22 8.5V15.5M22 8.5L12 15.5M22 15.5L12 22M22 15.5L12 8.5M12 22L2 15.5M12 22V15.5M2 15.5V8.5M2 15.5L12 8.5M2 8.5L12 15.5" stroke="#181D27" stroke-width="2" stroke-linecap="round" stroke-linejoin="round"/>
</svg>
